X:1
T:Conceptio tua - Porta
T:#
%%score [ 1 2 3 4 ]
L:1/8
Q:1/4=150
M:none
K:C
V:1 treble nm="Soprano" snm="S"
V:2 treble nm="Alto" snm="A"
V:3 treble-8 nm="Tenor" snm="T"
V:4 bass nm="Bass" snm="B"
V:1
 x16 x4 |"^Conceptio tua""^Costanzo Porta\n(c.1529-1601)"[Q:1/4=200] z16 | z8 A8 | G4 E4 F4 F4 | %4
w: ||De-|i ge- ni- trix|
[M:4/2][Q:1/4=200][Q:1/4=200][Q:1/4=200][Q:1/4=200] G8 ^F4 A4- | A2 A2 A4 B4 c4- | %6
w: vir- go, gau\-|* di- um an- nun\-|
 c2 B2 A4 G4 c4- | c4 A4 G4 A4- | A4 G4 A4 A4 | A4 A4 B4 (d4- | d4 c8) B4 | A12 G4 | %12
w: * ti- a- vit u\-|* ni- ver- so|* mun- do: Ex|te e- nim or\-|* * tus|est sol|
 G4 (G6 F2 F4-) | F4 E4 F8 | z8 z4 F4 | G4 E4 (F8 | E8) D4 (D4- | D2 E2 F2 G2 A8) | z4 D4 D8 | %19
w: ju- sti\- * *|* ti- ae,|Chri-|stus De- us|* no- ster:||Qui sol-|
 (F6 EF G4) G4 | A4 c8 B4- | B4 (A8 ^G4) | A4 A4 B4 c4- | c4 B4 A4 A4 | G8 ^F4 F4 | %25
w: vens * * * ma-|le- di- cti\-|* o\- *|nem, de- dit be\-|* ne- di- cti-|o- nem; et|
 ^F4 (G8 F2 E2) | (^F4 G4) A4 A4- | A4 G8 G4 | (=F2 E2 F2 G2 A4) (A4- | A2 B2 c4) (B2 A2 A4-) | %30
w: con- fun\- * *|* * dens mor\-|* tem, do-|na\- * * * * vit|* * * no\- * *|
 (A4 G4) A4 F4 | _B4 B4 A8 | A4 A4 A4 A4- | A2 A2 c4 B4 B4- | B4 c4 A4 c4 | (B2 A2 A8 ^G4) | A16 || %37
w: * * bis, do-|na- vit no-|bis vi- tam sem\-|* pi- ter- nam, vi\-|* tam sem- pi-|ter\- * * *|nam,|
[Q:1/4=150] ^F12 F4 | ^F8 F16 |] %39
w: sem- pi-|ter- nam.|
V:2
 x16 x4 | z4 E8 D4 | (G2 F2 E2 D2 C4) F4 | D4 (E6 D2 D4-) |[M:4/2] (D4 ^C4) D4 ^F4- | %5
w: |De- i|ge\- * * * * ni-|trix vir\- * *|* * go, gau\-|
 F2 ^F2 F4 G4 E4- | E2 E2 F4 E4 E4- | E4 F4 D4 E4 | D8 ^C4 E4 | E4 E4 G8 | G8 (G6 F2 | E8) F4 D4- | %12
w: * di- um an- nun\-|* ti- a- vit u\-|* ni- ver- so|mun- do: Ex|te e- nim|or- tus *|* est sol|
 D4 E4 D4 A,4 | C4 C8 D4 | B,4 C8 D4 | E4 E4 A,4 (D4- | D2 ^CB, C4) D8 | A,4 A,8 F4 | %18
w: * ju- sti- ti-|ae, Chri- stus|De- us no-|ster, De- us no\-|* * * * ster:|Qui sol- vens|
 D4 (G8 F2 E2 | D2 E2 F6 ED E4) | (F6 G2 A4 G2 F2 | E4) E4 E8 | E8 G8 | F4 D4 F2 F4 D2 | %24
w: ma- le\- * *||di\- * * * *|* cti- o-|nem, de-|dit be- ne- di- cti-|
 E8 A,4 D4- | D4 D4 D8 | D8 (C6 D2 | E2 F2 E6 D2 C2 B,2 | A,4) A,4 F8 | F4 F4 F8 | E4 E4 A,4 A4 | %31
w: o- nem; et|* con- fun-|dens mor\- *||* tem, do-|na- vit no-|bis, do- na- vit|
 (G12 F4) | E4 E4 F4 F4- | F2 F2 F4 D4 G4- | G4 G4 F6 F2 | (F8 E8) | ^C16 || D12 D4 | D8 D16 |] %39
w: no\- *|bis vi- tam sem\-|* pi- ter- nam, vi\-|* tam sem- pi-|ter\- *|nam,|sem- pi-|ter- nam.|
V:3
 x16 x4 | c8 B4 (B4- | B4 c4 A4) A4 | B8 (c4 A4) |[M:4/2][K:treble-8] (B4 G4) A4 d4- | %5
w: |De- i ge\-|* * * ni-|trix vir\- *|* * go, gau\-|
 d2 d2 d4 G4 A4- | A2 G2 F4 c4 (A4 | c4) d4 B4 c4 | _B8 A4 ^c4 | ^c4 c4 d4 (B2 c2 | %10
w: * di- um an- nun\-|* ti- a- vit u\-|* ni- ver- so|mun- do: Ex|te e- nim or\- *|
 d2 B2 e6 d2 d4- | d4) ^c4 d4 B4- | B4 =c4 (A6 GF) | G4 G4 A8 | z8 z4 A4 | B4 c4 d4 A4 | A4 A4 A8 | %17
w: |* tus est sol|* ju- sti\- * *|* ti- ae,|Chri-|stus De- us no-|ster: Qui sol-|
 d8 c8- | (c4 B4) A4 A4- | A4 A4 c8 | c4 A8 B4 | c4 c4 B8 | A4 c4 d4 e4 | A4 B4 c4 (d4- | %24
w: vens ma\-|* * le- di\-|* cti- o-|nem, ma- le-|di- cti- o-|nem, de- dit be-|ne- di- cti- o\-|
 d2 ^cB c4) d4 A4 | A4 (_B8 A2 G2) | (A4 _B4) (A6 =B2 | c4) B4 c4 e4 | d12 d4 | c4 A4 d8 | %30
w: * * * * nem; et|con- fun\- * *|* * dens *|* mor- tem, do-|na- vit|no- bis, do-|
 B4 c8 (d4- | d2 cd e6 d2 d4- | d4 ^c4) (d6 =cB | A8) z4 d4 | e8 c4 A4 | (d6 c2 B8) | A16 || %37
w: na- vit no\-||* * bis * *|* vi-|tam sem- pi-|ter\- * *|nam,|
 A12 A4 | A8 A16 |] %39
w: sem- pi-|ter- nam.|
V:4
 D,2 (D,2 C,2) F,2 G,2 (F,2 G,2) A,2 A,4 | A,8 G,8 | (E,8 F,8) | G,8 F,8 |[M:4/2] E,8 D,8 | %5
w: Con- ce\- * pti- o tu\- * * a|De- i|ge\- *|ni- trix|* vir-|
 D,8 z8 | z16 | z16 | z8 z4 A,4 | A,4 A,4 G,8 | G,8 (G,8 | A,8) D,4 G,4- | G,4 C,4 D,6 D,2 | %13
w: go:|||Ex|te e- nim|or- tus|* est sol|* ju- sti- ti-|
 C,8 F,8 | G,4 E,4 (F,8 | E,8) D,8 | A,,8 D,8 | D,8 F,8- | F,8 D,8 | (D,8 C,8) | F,12 G,4 | %21
w: ae, Chri-|stus De- us|* no-|ster: Qui|sol- vens|* ma-|le\- *|di- cti-|
 A,8 E,8 | z4 A,4 G,4 E,4 | F,4 G,4 (F,8 | E,8) D,8 | D,8 D,8 | D,8 F,8 | E,8 (C,8 | D,8) D,8 | %29
w: o- nem,|de- dit be-|ne- di- cti\-|* o-|nem; et|con- fun-|dens mor\-|* tem,|
 (F,8 D,8) | E,8 F,8 | (G,8 A,8) | (A,6 G,2 F,2 E,2 D,4) | F,8 G,8 | E,8 F,8 | (D,8 E,8) | A,,16 || %37
w: do\- *|na- vit|no\- *|bis * * * *|vi- tam|sem- pi-|ter\- *|nam,|
 D,12 D,4 | D,8 D,16 |] %39
w: sem- pi-|ter- nam.|

